X: 11729
T: Eleanor & Antonio's
R: jig
M: 6/8
K: Dmajor
|:ABd BAF|~A3 ABd|~e3 efg|~f3 fed|
ABd BAF|~A3 AFE|~D3 DEF|1 GFE BAF:|2 GFE FGA||
|:~B3 Bcd|eAe edc|~A3 AFB|ADA FGA|B3 Bcd|
~e3 efg|1 ~f3 dfa|bag fed:|2 1~f3 fed|BAD BAF||

